hoodie_driver/public/Viber.svg

<svg  viewBox="0 0 41 41" fill="#E0CC1B" xmlns="http://www.w3.org/2000/svg">
<path d="M19.1234 0.833496H20.0035C20.5666 0.852649 21.1295 0.868119 21.6923 0.879905C24.5864 0.940836 27.4903 1.34652 30.2388 2.27564C31.5108 2.70564 32.7402 3.2657 33.8638 4.00382C34.7065 4.55757 35.4356 5.23371 36.051 6.03223C37.2043 7.52868 37.9118 9.31779 38.3585 11.1423C38.6077 12.1599 38.7884 13.1896 38.9006 14.2314C38.9332 14.5337 38.9641 14.8362 38.9934 15.1391V21.0384C38.9181 22.0423 38.8198 23.0435 38.6985 24.042C38.4618 25.9921 37.9225 27.9085 36.9612 29.6297C35.616 32.0385 33.4019 33.7598 30.785 34.6289C30.2958 34.7912 29.7799 34.9389 29.2371 35.0722C28.9482 35.1429 28.6416 35.2493 28.3622 35.3168C27.6372 35.4924 26.8635 35.6414 26.0412 35.7639C23.2722 36.1768 20.4902 36.2962 17.6951 36.1219C17.4389 36.1059 17.1836 36.0896 16.9292 36.073C16.9182 36.0723 16.9093 36.0762 16.9023 36.0846C16.1427 36.996 15.3579 37.885 14.5478 38.7517C14.0805 39.2515 13.654 39.7626 13.1511 40.2545C12.8937 40.5064 12.6194 40.6994 12.3284 40.8335H11.1956C10.4954 40.5251 10.2813 39.6528 10.2816 38.9626C10.2825 37.6009 10.2824 36.2383 10.2813 34.8749C10.2813 34.8639 10.2761 34.857 10.2658 34.854C7.72028 34.1232 5.51916 32.7577 3.94756 30.6002C1.90335 27.7939 1.25489 24.2087 1.1365 20.8177C1.12766 20.5639 1.11829 20.3101 1.1084 20.0562V18.0316C1.1204 17.5593 1.13344 17.0871 1.14755 16.615C1.26846 12.5752 2.01606 8.28701 4.88711 5.21203C5.04223 5.04576 5.2065 4.88917 5.37993 4.74226C6.42272 3.8567 7.62367 3.17825 8.88714 2.66175C12.1149 1.34273 15.6648 0.916527 19.1234 0.833496ZM11.4778 32.2223C11.4819 32.2234 11.4855 32.2258 11.4881 32.2292C11.4907 32.2326 11.4921 32.2367 11.492 32.2409C11.4742 34.2305 11.4569 36.2186 11.4403 38.2052C11.4377 38.5144 11.4393 38.8235 11.445 39.1325C11.4475 39.2868 11.4835 39.5369 11.6351 39.6218C11.8172 39.7238 12.1364 39.529 12.2643 39.4002C12.4909 39.1716 12.7119 38.9376 12.9273 38.6981C14.5424 36.9023 16.0944 35.0475 17.6379 33.1896C17.6449 33.1812 17.6537 33.1773 17.6645 33.1779C20.381 33.3267 23.0812 33.1804 25.7649 32.7388C26.414 32.6318 27.0789 32.5124 27.7135 32.3375C28.1453 32.2182 28.6325 32.1181 29.0091 32.0243C31.1203 31.5003 32.9214 30.3359 34.1463 28.5386C35.1803 27.022 35.7205 25.1792 35.9484 23.3393C36.2913 20.5705 36.3992 17.7901 36.1214 15.0406C35.9768 13.6136 35.71 12.1961 35.2624 10.8319C34.701 9.12237 33.7245 7.27391 32.1668 6.2687C30.8219 5.40051 29.2184 4.82434 27.668 4.44423C25.6282 3.94447 23.5218 3.708 21.4242 3.66538C21.1828 3.66054 20.8171 3.64949 20.3271 3.63223C18.6808 3.57456 16.9629 3.67243 15.1732 3.92584C14.0529 4.08454 12.951 4.32668 11.8677 4.65228C10.346 5.10942 8.85146 5.79135 7.62273 6.81582C7.46213 6.94947 7.30965 7.09427 7.16526 7.25023C5.57883 8.96294 4.77535 11.1678 4.40881 13.4463C4.26148 14.3627 4.16656 15.2281 4.12404 16.0427C4.0649 17.175 4.03933 18.4062 4.04733 19.7364C4.06374 22.5254 4.37724 25.5151 5.79919 27.983C7.05445 30.1614 9.07467 31.5691 11.4778 32.2223Z" fill="#E0CC1B"/>
<path d="M19.9032 8.03981C22.6875 8.05149 25.2665 9.01534 27.2608 10.973C28.531 12.2199 29.3986 13.7056 29.8635 15.4302C30.1834 16.6174 30.3307 17.7847 30.3052 18.932C30.291 19.577 29.3025 19.5814 29.3009 18.9077C29.2956 16.5999 28.7358 14.275 27.2498 12.4578C25.9497 10.8689 24.1757 9.75094 22.1659 9.30516C21.4347 9.1431 20.695 9.05912 19.9468 9.05323C19.789 9.05196 19.6762 9.03797 19.6087 9.01124C19.2011 8.85117 19.192 8.21976 19.6343 8.06854C19.6911 8.04896 19.7807 8.03939 19.9032 8.03981Z" fill="#E0CC1B"/>
<path d="M15.1161 17.3816C16.086 20.3969 18.3291 22.885 21.4353 23.7648C21.5464 23.7964 21.6476 23.8105 21.7387 23.8071C22.0247 23.7967 22.3386 23.7137 22.5621 23.5271C22.6187 23.4797 22.7004 23.3876 22.8071 23.2505C23.0224 22.9734 23.2379 22.6963 23.4536 22.4193C23.7766 22.0048 24.3768 21.84 24.874 21.9063C25.111 21.938 25.3394 22.0155 25.5591 22.1386C26.738 22.7997 27.7201 23.5609 28.851 24.4859C29.1128 24.7 29.2712 24.8382 29.3261 24.9007C29.735 25.3658 29.7214 26.0041 29.4543 26.5557C29.2986 26.8771 29.0662 27.2215 28.7572 27.589C28.4204 27.9896 28.0099 28.3925 27.6093 28.6933C27.2709 28.9478 26.8945 29.1279 26.4803 29.2338C26.3448 29.2685 26.2088 29.2837 26.0724 29.2793C25.597 29.2632 25.1414 29.1183 24.701 28.9475C23.5364 28.4951 22.4093 27.9164 21.3078 27.3295C19.6961 26.4707 18.1728 25.4299 16.7827 24.2608C16.2173 23.785 15.692 23.2187 15.1647 22.6741C14.584 22.074 14.0461 21.4378 13.5508 20.7653C12.2611 19.0141 11.1802 17.0655 10.2823 15.1255C10.007 14.5304 9.71212 13.8065 9.58236 13.1312C9.51101 12.7596 9.53469 12.3893 9.66887 12.0265C9.7861 11.7096 9.95016 11.425 10.1611 11.1729C10.6906 10.5398 11.3089 9.99119 12.0158 9.5271C12.2196 9.39324 12.3974 9.3019 12.5494 9.25307C13.117 9.07122 13.6941 9.19656 14.0885 9.66917C14.605 10.2883 15.3014 11.1318 15.7999 11.8971C16.0405 12.2661 16.2805 12.6352 16.5201 13.0046C16.6779 13.2477 16.7798 13.4313 16.8257 13.5555C17.0255 14.0947 16.9538 14.7451 16.5961 15.2127C16.5305 15.2987 16.4241 15.3988 16.277 15.5129C15.9985 15.7288 15.7208 15.9453 15.4438 16.1623C15.1745 16.3732 15.0637 16.8477 15.07 17.1836C15.0713 17.2569 15.094 17.3131 15.1161 17.3816Z" fill="#E0CC1B"/>
<path d="M26.3106 15.4761C25.6987 13.7949 24.44 12.599 22.7336 12.0118C22.1679 11.8171 21.5412 11.6921 20.8536 11.6368C20.7346 11.6271 20.6487 11.6101 20.5956 11.5859C20.0744 11.3482 20.2875 10.5747 20.864 10.6211C21.3533 10.6605 21.8372 10.7353 22.3156 10.8456C25.6599 11.6166 27.7461 14.3727 27.6785 17.7826C27.6758 17.9125 27.6575 18.0129 27.6236 18.0838C27.4342 18.48 26.8599 18.4516 26.7017 18.0443C26.6771 17.9808 26.6654 17.8865 26.6667 17.7615C26.6743 16.9874 26.5777 16.2098 26.3106 15.4761Z" fill="#E0CC1B"/>
<path d="M21.6175 13.3618C22.6641 13.4215 23.6863 13.8164 24.319 14.6717C24.7809 15.2961 24.9886 16.1031 25.0395 16.8785C25.0483 17.0155 25.04 17.1203 25.0145 17.1929C24.8639 17.6204 24.254 17.6365 24.0765 17.221C24.0551 17.1711 24.0399 17.0863 24.0311 16.9665C23.9992 16.5426 23.9282 16.1384 23.7662 15.7438C23.3709 14.7806 22.5081 14.4437 21.5364 14.3711C21.4187 14.3623 21.3307 14.344 21.2724 14.3162C20.8768 14.1287 20.8895 13.5471 21.3056 13.3921C21.3801 13.3643 21.4841 13.3542 21.6175 13.3618Z" fill="#E0CC1B"/>
</svg>

<svg xmlns="http://www.w3.org/2000/svg" viewBox="0 0 41 41" fill="#E0CC1B" xmlns:v="https://vecta.io/nano"><path d="M19.123.833h.88l1.689.046c2.894.061 5.798.467 8.547 1.396 1.272.43 2.501.99 3.625 1.728a8.94 8.94 0 0 1 2.187 2.028c1.153 1.496 1.861 3.286 2.307 5.11a23.6 23.6 0 0 1 .542 3.089l.093.908v5.899l-.295 3.004c-.237 1.95-.776 3.866-1.737 5.588-1.345 2.409-3.559 4.13-6.176 4.999l-1.548.443-.875.245-2.321.447a39.7 39.7 0 0 1-8.346.358l-.766-.049c-.011-.001-.02.003-.027.012l-2.354 2.667-1.397 1.503c-.257.252-.532.445-.823.579h-1.133c-.7-.308-.914-1.181-.914-1.871v-4.088c0-.011-.005-.018-.015-.021-2.546-.731-4.747-2.096-6.318-4.254-2.044-2.806-2.693-6.392-2.811-9.783l-.028-.761V18.03l.039-1.417c.121-4.04.869-8.328 3.74-11.403a5.76 5.76 0 0 1 .493-.47c1.043-.886 2.244-1.564 3.507-2.081C12.115 1.343 15.665.917 19.123.833zm-7.646 31.389c.013.01.014.014.014.019l-.052 5.964.005.927c.002.154.038.404.19.489.182.102.501-.093.629-.222a19.94 19.94 0 0 0 .663-.702c1.615-1.796 3.167-3.651 4.711-5.508.007-.008.016-.012.027-.012a37.21 37.21 0 0 0 8.1-.439c.649-.107 1.314-.226 1.949-.401.432-.119.919-.219 1.296-.313 2.111-.524 3.912-1.688 5.137-3.486 1.034-1.517 1.574-3.359 1.802-5.199.343-2.769.451-5.549.173-8.299-.145-1.427-.411-2.844-.859-4.209-.561-1.71-1.538-3.558-3.096-4.563-1.345-.868-2.948-1.444-4.499-1.824-2.04-.5-4.146-.736-6.244-.779l-1.097-.033c-1.646-.058-3.364.04-5.154.294-1.12.159-2.222.401-3.306.726-1.522.457-3.016 1.139-4.245 2.164a4.79 4.79 0 0 0-.457.434c-1.586 1.713-2.39 3.918-2.756 6.196-.147.916-.242 1.782-.285 2.596-.059 1.132-.085 2.363-.077 3.694.016 2.789.33 5.779 1.752 8.247 1.255 2.178 3.275 3.586 5.679 4.239zM19.903 8.04c2.784.012 5.363.976 7.358 2.933a9.66 9.66 0 0 1 2.603 4.457c.32 1.187.467 2.355.442 3.502-.014.645-1.003.649-1.004-.024-.005-2.308-.565-4.633-2.051-6.45-1.3-1.589-3.074-2.707-5.084-3.153-.731-.162-1.471-.246-2.219-.252-.158-.001-.271-.015-.338-.042-.408-.16-.417-.791.026-.943.057-.02.146-.029.269-.029zm-4.787 9.342c.97 3.015 3.213 5.503 6.319 6.383a.95.95 0 0 0 .303.042c.286-.01.6-.093.823-.28a1.99 1.99 0 0 0 .245-.277l.647-.831c.323-.415.923-.579 1.42-.513a1.91 1.91 0 0 1 .685.232c1.179.661 2.161 1.422 3.292 2.347l.475.415c.409.465.395 1.103.128 1.655-.156.321-.388.666-.697 1.033-.337.401-.747.803-1.148 1.104-.338.255-.715.435-1.129.54a1.45 1.45 0 0 1-.408.046c-.475-.016-.931-.161-1.371-.332-1.165-.452-2.292-1.031-3.393-1.618-1.612-.859-3.135-1.9-4.525-3.069-.565-.476-1.091-1.042-1.618-1.587-.581-.6-1.119-1.236-1.614-1.909-1.29-1.751-2.371-3.7-3.269-5.64-.275-.595-.57-1.319-.7-1.994a2.03 2.03 0 0 1 .087-1.105 2.87 2.87 0 0 1 .492-.854 8.44 8.44 0 0 1 1.855-1.646c.204-.134.382-.225.534-.274.568-.182 1.145-.057 1.539.416l1.711 2.228.72 1.108c.158.243.26.427.306.551.2.539.128 1.19-.23 1.657-.066.086-.172.186-.319.3l-.833.649c-.269.211-.38.685-.374 1.021.001.073.024.13.046.198zm11.195-1.906c-.612-1.681-1.871-2.877-3.577-3.464a7.65 7.65 0 0 0-1.88-.375c-.119-.01-.205-.027-.258-.051-.521-.238-.308-1.011.268-.965a10.04 10.04 0 0 1 1.452.224c3.344.771 5.43 3.527 5.363 6.937-.003.13-.021.23-.055.301-.189.396-.764.368-.922-.04-.025-.064-.036-.158-.035-.283.008-.774-.089-1.552-.356-2.285zm-4.693-2.114c1.047.06 2.069.455 2.701 1.31.462.624.67 1.431.721 2.207.009.137 0 .242-.025.314a.51.51 0 0 1-.938.028c-.021-.05-.037-.135-.045-.255-.032-.424-.103-.828-.265-1.223-.395-.963-1.258-1.3-2.23-1.373-.118-.009-.206-.027-.264-.055-.396-.187-.383-.769.033-.924.075-.028.179-.038.312-.03z"/></svg>
